front_end/Images/flex-wrap-icon.svg

<svg width="13" height="13" viewBox="0 0 13 13" fill="none" xmlns="http://www.w3.org/2000/svg">
<path fill-rule="evenodd" clip-rule="evenodd" d="M3 2H2L2 5H3V2ZM2 1C1.44772 1 1 1.44772 1 2V5C1 5.55228 1.44772 6 2 6H3C3.55228 6 4 5.55228 4 5V2C4 1.44772 3.55228 1 3 1H2Z" fill="black"/>
<path d="M1 8C1 7.44772 1.44772 7 2 7H3C3.55228 7 4 7.44772 4 8V11C4 11.5523 3.55228 12 3 12H2C1.44772 12 1 11.5523 1 11V8Z" fill="black"/>
<path fill-rule="evenodd" clip-rule="evenodd" d="M11 2H10L10 5H11V2ZM10 1C9.44772 1 9 1.44772 9 2V5C9 5.55228 9.44772 6 10 6H11C11.5523 6 12 5.55228 12 5V2C12 1.44772 11.5523 1 11 1H10Z" fill="black"/>
<path d="M9 8C9 7.44772 9.44772 7 10 7H11C11.5523 7 12 7.44772 12 8V11C12 11.5523 11.5523 12 11 12H10C9.44772 12 9 11.5523 9 11V8Z" fill="black"/>
<path d="M5 2C5 1.44772 5.44772 1 6 1H7C7.55228 1 8 1.44772 8 2V5C8 5.55228 7.55228 6 7 6H6C5.44772 6 5 5.55228 5 5V2Z" fill="black"/>
<path fill-rule="evenodd" clip-rule="evenodd" d="M7 8H6L6 11H7V8ZM6 7C5.44772 7 5 7.44772 5 8V11C5 11.5523 5.44772 12 6 12H7C7.55228 12 8 11.5523 8 11V8C8 7.44772 7.55228 7 7 7H6Z" fill="black"/>
</svg>

<svg width="13" height="13" fill="none" xmlns="http://www.w3.org/2000/svg"><path fill-rule="evenodd" clip-rule="evenodd" d="M3 2H2v3h1V2zM2 1a1 1 0 0 0-1 1v3a1 1 0 0 0 1 1h1a1 1 0 0 0 1-1V2a1 1 0 0 0-1-1H2z" fill="#000"/><path d="M1 8a1 1 0 0 1 1-1h1a1 1 0 0 1 1 1v3a1 1 0 0 1-1 1H2a1 1 0 0 1-1-1V8z" fill="#000"/><path fill-rule="evenodd" clip-rule="evenodd" d="M11 2h-1v3h1V2zm-1-1a1 1 0 0 0-1 1v3a1 1 0 0 0 1 1h1a1 1 0 0 0 1-1V2a1 1 0 0 0-1-1h-1z" fill="#000"/><path d="M9 8a1 1 0 0 1 1-1h1a1 1 0 0 1 1 1v3a1 1 0 0 1-1 1h-1a1 1 0 0 1-1-1V8zM5 2a1 1 0 0 1 1-1h1a1 1 0 0 1 1 1v3a1 1 0 0 1-1 1H6a1 1 0 0 1-1-1V2z" fill="#000"/><path fill-rule="evenodd" clip-rule="evenodd" d="M7 8H6v3h1V8zM6 7a1 1 0 0 0-1 1v3a1 1 0 0 0 1 1h1a1 1 0 0 0 1-1V8a1 1 0 0 0-1-1H6z" fill="#000"/></svg>
